symbolic/22x22/apps/distributor-logo-freedos.svg

<svg xmlns="http://www.w3.org/2000/svg" width="22" height="22"><g transform="translate(-1 -1)"><path style="opacity:.2" d="M3 14.5s.006 2.144 1.457 3.801A11.908 11.908 0 0 0 4 20.5l1.377-1.377S7 20.5 10 20.5c7 0 8-6 8-6z"/><path style="fill:#90acd5" d="M3 14s.006 2.144 1.457 3.801A11.908 11.908 0 0 0 4 20l1.377-1.377S7 20 10 20c7 0 8-6 8-6z"/><path style="opacity:.2" d="M11 4.5c-9.028 0-9 10-9 12 3 2 11 1 11 1h1l3 3s-.23-2.488-1.131-3.537L17 16.5c0 1 2 3 4 3 0 0-2-2-2-4s3-2 3-2-1-1-2-1-1 0-2 1c0-2 1-9-7-9z"/><path style="fill:#bfcfe7" d="M11 4C1.972 4 2 14 2 16c3 2 11 1 11 1h1l3 3s-.23-2.488-1.131-3.537L17 16c0 1 2 3 4 3 0 0-2-2-2-4s3-2 3-2-1-1-2-1-1 0-2 1c0-2 1-9-7-9z"/><circle style="fill:#4f4f4f" cx="5" cy="14" r="1"/><circle style="fill:#4f4f4f" cx="10" cy="14" r="1"/><circle style="opacity:.2" cx="10" cy="14.5" r="2"/><circle style="fill:#fff" cx="10" cy="14" r="2"/><circle style="opacity:.2" cx="5" cy="14.5" r="2"/><circle style="fill:#4f4f4f" cx="10" cy="14" r="1"/><circle style="fill:#fff" cx="5" cy="14" r="2"/><circle style="fill:#4f4f4f" cx="5" cy="14" r="1"/><path style="opacity:.2;fill:#fff" d="M11 4C1.972 4 2 14 2 16l.008.004C2.033 13.314 2.486 4.5 11 4.5c5.984 0 6.931 3.916 7.029 6.727C18.023 8.408 17.37 4 11 4zm9 8c-.994 0-1.004.004-1.986.986-.006.175-.014.38-.014.514 1-1 1-1 2-1 .534 0 1.054.281 1.436.547C21.764 13.005 22 13 22 13s-1-1-2-1zm-.975 3.225A1.836 1.836 0 0 0 19 15.5c0 1.383.937 2.722 1.527 3.443.158.024.315.057.473.057 0 0-1.835-1.853-1.975-3.775zm-2.89 1.629-.266.109c.634.738.924 2.158 1.047 2.953L17 20s-.186-1.974-.865-3.146z"/></g></svg>

<svg xmlns="http://www.w3.org/2000/svg" width="22" height="22" version="1.1">
 <g transform="translate(-1,-1)">
  <path style="opacity:0.2" d="M 3,14.5 C 3,14.5 3.006,16.644 4.457,18.301 4.1114,19.364 4,20.5 4,20.5 L 5.377,19.123 C 5.377,19.123 7,20.5 10,20.5 17,20.5 18,14.5 18,14.5 Z"/>
  <path style="fill:#90acd5" d="M 3,14 C 3,14 3.006,16.144 4.457,17.801 4.1114,18.864 4,20 4,20 L 5.377,18.623 C 5.377,18.623 7,20 10,20 17,20 18,14 18,14 Z"/>
  <path style="opacity:0.2" d="M 11,4.5 C 1.9722,4.5 2,14.5 2,16.5 5,18.5 13,17.5 13,17.5 H 14 L 17,20.5 C 17,20.5 16.77,18.012 15.869,16.963 L 17,16.5 C 17,17.5 19,19.5 21,19.5 21,19.5 19,17.5 19,15.5 19,13.5 22,13.5 22,13.5 22,13.5 21,12.5 20,12.5 19,12.5 19,12.5 18,13.5 18,11.5 19,4.5 11,4.5 Z"/>
  <path style="fill:#bfcfe7" d="M 11,4 C 1.9722,4 2,14 2,16 5,18 13,17 13,17 H 14 L 17,20 C 17,20 16.77,17.512 15.869,16.463 L 17,16 C 17,17 19,19 21,19 21,19 19,17 19,15 19,13 22,13 22,13 22,13 21,12 20,12 19,12 19,12 18,13 18,11 19,4 11,4 Z"/>
  <circle style="fill:#4f4f4f" cx="5" cy="14" r="1"/>
  <circle style="fill:#4f4f4f" cx="10" cy="14" r="1"/>
  <circle style="opacity:0.2" cx="10" cy="14.5" r="2"/>
  <circle style="fill:#ffffff" cx="10" cy="14" r="2"/>
  <circle style="opacity:0.2" cx="5" cy="14.5" r="2"/>
  <circle style="fill:#4f4f4f" cx="10" cy="14" r="1"/>
  <circle style="fill:#ffffff" cx="5" cy="14" r="2"/>
  <circle style="fill:#4f4f4f" cx="5" cy="14" r="1"/>
  <path style="opacity:0.2;fill:#ffffff" d="M 11,4 C 1.9722,4 2,14 2,16 2.0023,16.002 2.0055,16.002 2.0078,16.004 2.0326,13.314 2.4859,4.5 11,4.5 16.984,4.5 17.931,8.4156 18.029,11.227 18.023,8.4084 17.37,4 11,4 Z M 20,12 C 19.006,12 18.996,12.004 18.014,12.986 18.008,13.161 18,13.366 18,13.5 19,12.5 19,12.5 20,12.5 20.534,12.5 21.054,12.781 21.436,13.047 21.764,13.005 22,13 22,13 22,13 21,12 20,12 Z M 19.025,15.225 C 19.012,15.313 19,15.402 19,15.5 19,16.883 19.937,18.222 20.527,18.943 20.685,18.967 20.842,19 21,19 21,19 19.165,17.147 19.025,15.225 Z M 16.135,16.854 15.869,16.963 C 16.503,17.701 16.793,19.121 16.916,19.916 L 17,20 C 17,20 16.814,18.026 16.135,16.854 Z"/>
 </g>
</svg>
